assets/features/global-acquiring/applePay.svg

<svg width="20" height="20" viewBox="0 0 20 20" fill="none" xmlns="http://www.w3.org/2000/svg">
<rect width="20" height="20" rx="4" fill="#010101"/>
<path d="M12.8181 9.51513C12.8348 11.0282 14.1916 11.5307 14.2027 11.5362C14.1916 11.5697 13.985 12.2565 13.4881 12.96C13.0582 13.5685 12.6115 14.1771 11.908 14.1882C11.2157 14.1994 10.9923 13.7918 10.2051 13.7918C9.41226 13.7918 9.16659 14.1771 8.51335 14.1994C7.83219 14.2217 7.31852 13.5406 6.88303 12.932C5.99528 11.6926 5.3197 9.4258 6.22978 7.89601C6.68203 7.1367 7.49161 6.65655 8.36818 6.6398C9.0326 6.62863 9.66351 7.07529 10.0711 7.07529C10.4787 7.07529 11.2436 6.5393 12.0476 6.61747C12.3826 6.62863 13.3317 6.75146 13.9347 7.61127C13.8845 7.63919 12.8069 8.24775 12.8181 9.51513ZM11.5172 5.79674C11.8801 5.37242 12.1202 4.78618 12.0532 4.19995C11.5339 4.22228 10.903 4.53494 10.5345 4.95926C10.1995 5.33334 9.90917 5.93074 9.98734 6.5058C10.568 6.55047 11.1598 6.22106 11.5172 5.79674Z" fill="white"/>
</svg>

<svg xmlns="http://www.w3.org/2000/svg" width="20" height="20" fill="none" viewBox="0 0 20 20"><rect width="20" height="20" fill="#010101" rx="4"/><path fill="#fff" d="M12.818 9.515c.017 1.513 1.374 2.016 1.385 2.021-.011.034-.218.72-.715 1.424-.43.608-.876 1.217-1.58 1.228-.692.011-.916-.396-1.703-.396-.793 0-1.038.385-1.692.407-.68.023-1.194-.658-1.63-1.267-.888-1.24-1.563-3.506-.653-5.036A2.56 2.56 0 0 1 8.368 6.64c.665-.011 1.296.435 1.703.435s1.173-.536 1.977-.458c.335.012 1.284.134 1.887.994-.05.028-1.128.637-1.117 1.904m-1.3-3.718c.362-.425.602-1.01.535-1.597-.52.022-1.15.335-1.519.76-.335.373-.625.97-.547 1.546.581.044 1.173-.285 1.53-.71"/></svg>
